X: 1
T: Braddock's March
M: 2/4
L: 1/8
R: polka
K: Dmaj
|: F>A dd | cd e2 | g>f ed | cB A2 | 
F>A dd | cd e2 | f2 a>c  | d2 d2:|
|: g>f ed | cB A2 | Fd Fd  | cd e2 |
g>f  ed | cB A2 | f2 a>c | d2 d2 :|
